src/shared/data/svg/logo.svg

<svg xmlns="http://www.w3.org/2000/svg" fill="none" viewBox="0 0 44 44"><path stroke="#FAFAFA" stroke-linecap="round" stroke-linejoin="round" stroke-width="3" d="M4.40137 4.55029v8.16001-.1614c0 2.2838.99647 4.3059 2.54147 5.6145.75542.64 1.25461 1.504 1.25461 2.4631v13.3513c0 1.4843 1.27548 2.689 2.84705 2.689 1.5716 0 2.8471-1.2047 2.8471-2.689V20.6265c0-.9591.4991-1.8231 1.2546-2.4631 1.545-1.3086 2.5414-3.3307 2.5414-5.6145V4.55029v7.99861M11.043 13.363V4.3999M36.667 6.28578c0-.98952-.8504-1.79262-1.8981-1.79262h-1.898c-3.1451 0-5.6941 2.40749-5.6941 5.37785V20.6267c0 2.3376 1.5886 4.3076 3.796 5.048v8.3034c0 1.4843 1.2755 2.6889 2.8471 2.6889s2.8471-1.2046 2.8471-2.6889V6.28578Z"/></svg>

<svg width="44" height="44" viewBox="0 0 44 44" fill="none" xmlns="http://www.w3.org/2000/svg">
<path d="M4.40137 4.54999V12.5486V12.71V12.5486C4.40137 14.8324 5.39784 16.8545 6.94284 18.1631C7.69826 18.8031 8.19745 19.6671 8.19745 20.6261V33.9775C8.19745 35.4618 9.47293 36.6665 11.0445 36.6665C12.6161 36.6665 13.8916 35.4618 13.8916 33.9775V20.6261C13.8916 19.6671 14.3907 18.8031 15.1462 18.1631C16.6912 16.8545 17.6876 14.8324 17.6876 12.5486V4.54999V12.5486" stroke="#FAFAFA" stroke-width="3" stroke-linecap="round" stroke-linejoin="round"/>
<path d="M11.043 13.3627V4.39966" stroke="#FAFAFA" stroke-width="3" stroke-linecap="round" stroke-linejoin="round"/>
<path d="M36.667 6.28535C36.667 5.29583 35.8166 4.49274 34.7689 4.49274H32.8709C29.7258 4.49274 27.1768 6.90022 27.1768 9.87058V20.6263C27.1768 22.9638 28.7654 24.9339 30.9728 25.6743V33.9777C30.9728 35.4619 32.2483 36.6666 33.8199 36.6666C35.3915 36.6666 36.667 35.4619 36.667 33.9777V26.0041V6.28535Z" stroke="#FAFAFA" stroke-width="3" stroke-linecap="round" stroke-linejoin="round"/>
</svg>
